packages/core/src/svgs/tokens/mono/ELK.svg

<svg width="24" height="24" viewBox="0 0 24 24" fill="none" xmlns="http://www.w3.org/2000/svg">
<path d="M11.9999 15.2499V13.2949L5.90019 7.24011C5.73407 7.05279 5.54414 6.88805 5.3352 6.75012C5.05021 6.75012 4.73522 6.85512 4.56023 6.99511C4.38024 7.13511 4.13525 7.90508 3.89026 8.25507C3.64026 8.60506 2.34031 8.88505 2.16031 9.02504C1.98532 9.16504 2.00032 10.45 2.00032 10.905C2.00032 11.25 2.7603 11.25 2.90029 11.25C3.04029 11.25 3.22027 10.975 3.22027 10.87C4.37024 10.14 5.18521 10.24 5.5002 10.25L7.00014 11.5C6.68016 11.65 5.89018 12.0499 5.75019 12.105C5.5702 12.175 5.5002 12.49 5.5002 13.2949C5.5002 14.0999 5.71019 14.2498 5.99518 14.2498C6.27517 14.2498 6.38016 14.1448 6.45016 14.0748C6.76515 13.7649 8.2001 13.4249 8.79009 13.2499C9.07507 13.5299 9.44006 14.1398 9.50006 14.2498C8.90008 14.3548 7.98011 14.8699 7.80012 14.9749C7.62513 15.0799 7.50013 16.5247 7.50013 16.8747C7.50013 17.1597 8.17011 17.2498 8.5001 17.2498C8.55009 17.1998 8.65009 17.0797 8.65009 16.9698C9.30007 16.4698 10.7951 16.0798 11.5 15.9998L11.9999 15.2499ZM11.9999 15.2499V13.2949L18.0998 7.24011C18.2798 7.06511 18.5998 6.75012 18.6648 6.75012C18.9498 6.75012 19.2648 6.85512 19.4398 6.99511C19.6198 7.13511 19.8648 7.90508 20.1097 8.25507C20.3596 8.60506 21.6596 8.88505 21.8396 9.02504C22.0146 9.16504 21.9997 10.45 21.9997 10.905C21.9997 11.25 21.2396 11.25 21.0996 11.25C20.9596 11.25 20.7796 10.975 20.7796 10.87C19.6297 10.14 18.8148 10.24 18.4998 10.25L16.9998 11.5C17.3147 11.65 18.1098 12.0499 18.2498 12.105C18.4298 12.175 18.4998 12.49 18.4998 13.2949C18.4998 14.0999 18.2898 14.2498 18.0048 14.2498C17.7248 14.2498 17.6198 14.1448 17.5498 14.0748C17.2348 13.7649 15.7999 13.4249 15.2099 13.2499C14.9249 13.5299 14.5599 14.1398 14.4999 14.2498C15.0999 14.3548 16.0198 14.8699 16.1998 14.9749C16.3748 15.0799 16.4999 16.5247 16.4999 16.8747C16.4999 17.1597 15.8299 17.2498 15.4998 17.2498C15.4499 17.1998 15.3499 17.0797 15.3499 16.9698C14.6999 16.4698 13.205 16.0798 12.5 15.9998L11.9999 15.2499Z" fill="white"/>
</svg>

<svg xmlns="http://www.w3.org/2000/svg" width="24" height="24" fill="none" viewBox="0 0 24 24">
    <path fill="#fff" d="M12 15.25v-1.955L5.9 7.24a3 3 0 0 0-.565-.49c-.285 0-.6.105-.775.245-.18.14-.425.91-.67 1.26-.25.35-1.55.63-1.73.77-.175.14-.16 1.425-.16 1.88 0 .345.76.345.9.345s.32-.275.32-.38c1.15-.73 1.965-.63 2.28-.62L7 11.5c-.32.15-1.11.55-1.25.605-.18.07-.25.385-.25 1.19s.21.955.495.955c.28 0 .385-.105.455-.175.315-.31 1.75-.65 2.34-.825.285.28.65.89.71 1-.6.105-1.52.62-1.7.725-.175.105-.3 1.55-.3 1.9 0 .285.67.375 1 .375.05-.05.15-.17.15-.28.65-.5 2.145-.89 2.85-.97zm0 0v-1.955l6.1-6.055c.18-.175.5-.49.565-.49.285 0 .6.105.775.245.18.14.425.91.67 1.26.25.35 1.55.63 1.73.77.175.14.16 1.425.16 1.88 0 .345-.76.345-.9.345s-.32-.275-.32-.38c-1.15-.73-1.965-.63-2.28-.62L17 11.5c.315.15 1.11.55 1.25.605.18.07.25.385.25 1.19s-.21.955-.495.955c-.28 0-.385-.105-.455-.175-.315-.31-1.75-.65-2.34-.825-.285.28-.65.89-.71 1 .6.105 1.52.62 1.7.725.175.105.3 1.55.3 1.9 0 .285-.67.375-1 .375-.05-.05-.15-.17-.15-.28-.65-.5-2.145-.89-2.85-.97z"/>
</svg>
